X:14
T:Chaconne Theme in D minor
C:Bach, J.S.
M:3/4
L:1/8
Q:1/4=60
K:Dmin
|:A2|d2 cA F2|G2 FD B,2|C2 DE FG|A4 A2|
d2 ef g2|f2 ed c2|d2 cA GF|D4:|

